src/img/comment.svg

<svg width="14" height="14" viewBox="0 0 14 14" fill="none" xmlns="http://www.w3.org/2000/svg">
<path d="M9.76999 5.04H3.76999V4.04H9.76999V5.04ZM8.05998 7.04H3.76999V8.04H8.05998V7.04ZM11.27 11.54H11.77C12.1678 11.54 12.5493 11.382 12.8306 11.1007C13.1119 10.8194 13.27 10.4378 13.27 10.04V2.04C13.2753 1.83968 13.2405 1.64031 13.1675 1.45368C13.0945 1.26705 12.9849 1.09694 12.845 0.953388C12.7052 0.809836 12.5381 0.695753 12.3534 0.617882C12.1688 0.540011 11.9704 0.499929 11.77 0.5H1.76999C1.37216 0.5 0.99064 0.658034 0.709335 0.939339C0.428031 1.22064 0.269989 1.60218 0.269989 2V10C0.269989 10.3978 0.428031 10.7794 0.709335 11.0607C0.99064 11.342 1.37216 11.5 1.76999 11.5H7.62L11.27 13.93V11.54ZM11.77 1.54C11.9026 1.54 12.0298 1.59268 12.1235 1.68645C12.2173 1.78022 12.27 1.90739 12.27 2.04V10.04C12.27 10.1726 12.2173 10.2998 12.1235 10.3936C12.0298 10.4873 11.9026 10.54 11.77 10.54H10.27V12.1L7.88998 10.5H1.76999C1.63738 10.5 1.51021 10.4473 1.41644 10.3536C1.32267 10.2598 1.26999 10.1326 1.26999 10V2C1.26999 1.86739 1.32267 1.74021 1.41644 1.64645C1.51021 1.55268 1.63738 1.5 1.76999 1.5L11.77 1.54Z" fill="black"/>
</svg>

<svg width="14" height="14" fill="none" xmlns="http://www.w3.org/2000/svg"><path d="M9.77 5.04h-6v-1h6v1Zm-1.71 2H3.77v1h4.29v-1Zm3.21 4.5h.5a1.5 1.5 0 0 0 1.5-1.5v-8A1.5 1.5 0 0 0 11.77.5h-10A1.5 1.5 0 0 0 .27 2v8a1.5 1.5 0 0 0 1.5 1.5h5.85l3.65 2.43v-2.39Zm.5-10a.5.5 0 0 1 .5.5v8a.5.5 0 0 1-.5.5h-1.5v1.56l-2.38-1.6H1.77a.5.5 0 0 1-.5-.5V2a.5.5 0 0 1 .5-.5l10 .04Z" fill="#000"/></svg>
